X:851
T:Kirks Hornpipe
S:Wick Scottish Dance Band
Z:Nigel Gatherer
M:4/4
L:1/8
K:D
A2 | FGAF D2 d2 | cdec A2 ef | gfed B2 ed | c2 A2 A2
AG | FGAF D2 d2 | cdec A2 ef | gfed BecA  | d4    d2 :|
fg | afdf a2 a2 | gece g2 g2 | gfed B2 ed | c2 A2 A2
1fg | afdf a2 a2 | gece g2 g2 | gfed BecA  | d4    d2 :|
2A2 | FGAF D2 d2 | cdec A2 ef | gfed BecA  | d4    d2 |]
